!!!COM:	Pierre de la Rue
**kern	**kern
*part2	*part1
*staff2	*staff1
*clefGv2	*clefG2
*k[]	*k[]
*M2/1	*M2/1
=1-	=1-
1G	0r
4G	.
4A	.
4B	.
4c	.
=2	=2
2B	1g
1c	.
.	4g
.	4a
4B	4b
4A	4cc
=3	=3
2G	2b
2A	1cc
1F	.
.	4b
.	4a
=4	=4
2E	2g
2.F	2a
.	1f
4D	.
[2d	.
=5	=5
2d]	1e
2c	.
2A	2r
[2B	[2dd
=6	=6
2B]	2dd]
1A	2cc
.	2a
2G	[2b
=7	=7
2.A	2b]
.	1a
4B	.
1c	.
.	2g
=8	=8
1F	2.a
.	4b
2r	[1cc
2e	.
=9	=9
1e	2cc]
.	4b
.	4a
[1e	2g
.	2c
=10	=10
1e]	2r
.	1cc
[1f	.
.	4b
.	4a
=11	=11
2f]	1a
4e	.
4d	.
2d	1b
2G	.
=12	=12
2r	1a
2d	.
2c	2r
2d	2a
=13	=13
2G	2b
2d	2.a
4c	.
4B	4g
4c	2a
4d	.
=14	=14
2G	2b
2.d	1a
4c	.
4B	[2dd
4A	.
=15	=15
2G	4dd]
.	4cc
2.g	4b
.	4a
.	2.g
4f	.
4e	.
4d	4f
=16	=16
1.c	2g
.	1a
2B	[2g
=17	=17
1c	2g]
.	1cc
1d	.
.	2b
=18	=18
1.c	0cc
4B	.
4A	.
*clefG2	*
=19	=19
1a	0cc
2a	.
2b	.
=20	=20
2cc	1a
2dd	.
*clefGv2	*
.	.
=21	=21
2G	1b]
2A	.
2B	1g
2c	.
=22	=22
1F	1a
[1f	2a
.	2b
=23	=23
1f]	2cc
.	2dd
[1e	1g
=24	=24
1e]	2g
.	2a
1e	2b
.	2cc
=25	=25
1d	1f
2d	2f
2e	2g
=26	=26
2f	2a
2g	2b
1e	2.cc
.	4b
=27	=27
2e	2cc
2f	1dd
2g	.
2a	2cc
=28	=28
1.d	1dd
.	2r
2G	[2dd
=29	=29
1G	2dd]
.	4cc
.	4b
2r	2cc
[2g	[2dd
=30	=30
2g]	2dd]
4f	2g
4e	.
2f	2a
[2g	2b
=31	=31
2g]	1g
2c	.
2d	2r
2e	[2g
=32	=32
2c	4g]
.	4f
1g	1e
4f	4d
4e	4c
=33	=33
2f	2d
2.g	2e
.	2c
4f	.
4e	[2cc
4d	.
=34	=34
2c	2cc]
1g	4b
.	4a
.	2b
4f	2cc
4e	.
=35	=35
2f	2dd
2g	1g
1c	.
.	[2cc
=36	=36
2r	2cc]
1g	4b
.	4a
.	2b
4f	2cc
4e	.
=37	=37
2f	2dd
*clefG2	*
2gg	2g
2ee	2.cc
2cc	.
.	4a
=38	=38
2.gg	2b
.	2cc
4ee	.
2ff	2dd
2gg	[2b
=39	=39
1g	4b]
.	4a
.	1g
1a	.
.	2f
=40	=40
0g	0g
==	==
*-	*-
